X:180
T:Red-Haired Lass
M:C
L:1/8
K:G Major
DGGF G2BG|DGBG AGEG|DGGF G2Bd|egdB cBAB|!
DGGF G2BG|DGBG AGEG|DGGF G2Bd|egdB c2Bc|]!
d2gd edgd|d2gd BGAB|d2gd edef|gedB c2Bc|!
d2gd edgd|d2gd BGAB|c3A B3G|Bdef gdBG:|!
